X:1
T:Oldbridge, 88.84
T:Oldbridge, 88.84
T:Robert Newton Quaile, 1903
T:Public Domain Courtesy of the Cyber Hymnal™
C:Robert Newton Quaile, 1903
Z:Public Domain
Z:Courtesy of the Cyber Hymnal™
%%score 1 ( 2 3 )
L:1/8
M:3/4
K:F
V:1 treble 
V:2 bass 
V:3 bass 
V:1
 [FA]2 [FA]2 [FA]2 | [FA]4 [CF]2 | [EG]4 [EA]2 | [DF]6 | [Fc]2 [Fc]2 [Fc]2 | [GB]4 [EG]2 | %6
 [FA]4 [CF]2 | [CG]6 | [CE]2 [CF]2 [CG]2 | [CA]4 [CA]2 | [CA]4 [A,F]2 | [B,D]4 [A,C]2 | [DF]6 | %13
 [EG]6 | [CF]6 |] %15
V:2
 [F,C]2 [F,C]2 [F,C]2 | [F,C]4 [F,A,]2 | [C,C]4 [A,,C]2 | [D,A,]6 | [A,C]2 [A,C]2 [A,C]2 | %5
 [G,D]4 [C,C]2 | [F,C]4 [A,,F,]2 | [C,E,]6 | [B,,G,]2 [A,,F,]2 [G,,E,]2 | [F,,F,]4 [F,,F,]2 | %10
 [A,,E,]4 [D,F,]2 | [B,,F,]4 F,2 | [D,A,]6 | [C,C]6 | [F,,A,]6 |] %15
V:3
 x6 | x6 | x6 | x6 | x6 | x6 | x6 | x6 | x6 | x6 | x6 | x4 F,2 | x6 | x6 | x6 |] %15

